svg/24/chevrons-left.svg

<svg width="24" height="24" viewBox="0 0 24 24" fill="currentColor" xmlns="http://www.w3.org/2000/svg"><path d="M17.7803 7.28033C18.0732 6.98744 18.0732 6.51256 17.7803 6.21967C17.4874 5.92678 17.0126 5.92678 16.7197 6.21967L11.4697 11.4697C11.1768 11.7626 11.1768 12.2374 11.4697 12.5303L16.7197 17.7803C17.0126 18.0732 17.4874 18.0732 17.7803 17.7803C18.0732 17.4874 18.0732 17.0126 17.7803 16.7197L13.0607 12L17.7803 7.28033Z"/><path d="M12.7803 7.28033C13.0732 6.98744 13.0732 6.51256 12.7803 6.21967C12.4874 5.92678 12.0126 5.92678 11.7197 6.21967L6.46967 11.4697C6.17678 11.7626 6.17678 12.2374 6.46967 12.5303L11.7197 17.7803C12.0126 18.0732 12.4874 18.0732 12.7803 17.7803C13.0732 17.4874 13.0732 17.0126 12.7803 16.7197L8.06066 12L12.7803 7.28033Z"/></svg>

<svg xmlns="http://www.w3.org/2000/svg" width="24" height="24" fill="currentColor" viewBox="0 0 24 24">
  <path d="M17.78 7.28a.75.75 0 0 0-1.06-1.06l-5.25 5.25a.75.75 0 0 0 0 1.06l5.25 5.25a.75.75 0 1 0 1.06-1.06L13.06 12l4.72-4.72Z"/>
  <path d="M12.78 7.28a.75.75 0 0 0-1.06-1.06l-5.25 5.25a.75.75 0 0 0 0 1.06l5.25 5.25a.75.75 0 1 0 1.06-1.06L8.06 12l4.72-4.72Z"/>
</svg>
